**kern	**kern	**dynam
*part1	*part1	*part1
*staff2	*staff1	*
*I"Piano	*	*
*clefG2	*clefF4	*
*k[f#]	*k[f#]	*
=1	=1	=1
4EE'	8r	.
.	4E 4G 4B	.
(4C	.	.
.	4E 4G 4B	pp
4BB)	.	.
.	8E 8G 8B	.
=	=	=
(2GG	8r	.
.	4E 4G 4B	.
.	4E 4G 4B	.
4FF#)	.	.
.	8E 8G 8B	.
=	=	=
4EE'	8r	.
.	4E 4G 4B	.
(4C	.	.
.	8E 8G 8B	.
4BB)	4r	.
=	=	=
2.r	4r	.
.	4E 4G 4B	.
.	4r	.
=	=	=
4EE'	4r	ppp
!	!LO:TX:b:i:t=rit.	!
4r	4E 4G 4B	.
[4C	4r	.
=	=	=
(4C]	4E 4G 4B	.
4BB)	4r	.
4r	[4E [4G [4B	.
=	=	=
2.EE;	2.E;] 2.G] 2.B]	.
==	==	==
*-	*-	*-
!!!system-decoration: {(s1,s2)}
